icons/communication/reply-all-24.svg

<svg width="24" height="24" viewBox="0 0 24 24" fill="none" xmlns="http://www.w3.org/2000/svg">
<path fill-rule="evenodd" clip-rule="evenodd" d="M10.4996 7.16847V5.04503C10.4996 4.18971 9.4955 3.72914 8.84723 4.28711L1.34765 10.7421C0.884116 11.141 0.884116 11.8589 1.34765 12.2579L8.84723 18.7129C9.4955 19.2709 10.4996 18.8103 10.4996 17.955V15.8315L13.8472 18.7129C14.4955 19.2709 15.4996 18.8103 15.4996 17.955V14.8566C16.994 14.9148 18.3635 15.239 19.522 15.8863C20.7972 16.5988 21.8576 17.7247 22.5572 19.4158C22.6939 19.7464 23.0452 19.9344 23.396 19.8646C23.7469 19.7949 23.9996 19.4869 23.9996 19.129V18C23.9996 15.0231 23.0031 12.5828 21.3526 10.8827C19.8171 9.30109 17.7507 8.39745 15.4996 8.2809V5.04503C15.4996 4.18971 14.4955 3.72914 13.8472 4.28711L10.4996 7.16847ZM8.99958 6.13508L2.76646 11.5L8.99958 16.8649V14.5405L6.34765 12.2579C5.88412 11.8589 5.88412 11.141 6.34765 10.7421L8.99958 8.45953V6.13508ZM13.9996 6.13508V9.00781C13.9996 9.42202 14.2886 9.76801 14.9993 9.76801C17.0624 9.76801 18.9272 10.5374 20.277 11.9278C21.3149 12.9968 22.0725 14.4584 22.3661 16.2762C21.7477 15.5771 21.0366 15.0144 20.2531 14.5767C18.685 13.7006 16.7398 13.347 14.8704 13.347C14.3438 13.347 13.9996 13.679 13.9996 14.0932V16.8649L7.76646 11.5L13.9996 6.13508Z" fill="black"/>
</svg>

<svg xmlns="http://www.w3.org/2000/svg" width="24" height="24"><path fill-rule="evenodd" d="M10.5 7.168V5.045a1 1 0 00-1.653-.758l-7.5 6.455a1 1 0 000 1.516l7.5 6.455a1 1 0 001.653-.758v-2.123l3.347 2.88a1 1 0 001.653-.757v-3.098c1.494.058 2.863.382 4.022 1.03 1.275.712 2.336 1.838 3.035 3.529A.75.75 0 0024 19.129V18c0-2.977-.997-5.417-2.647-7.117C19.817 9.3 17.75 8.397 15.5 8.28V5.045a1 1 0 00-1.653-.758L10.5 7.168zM9 6.135L2.766 11.5 9 16.865V14.54l-2.652-2.283a1 1 0 010-1.516L9 8.46V6.135zm5 0v2.873c0 .414.289.76 1 .76 2.062 0 3.927.77 5.277 2.16 1.038 1.069 1.796 2.53 2.09 4.348a8.036 8.036 0 00-2.114-1.7c-1.568-.875-3.513-1.229-5.383-1.229-.526 0-.87.332-.87.746v2.772L7.766 11.5 14 6.135z"/></svg>
